X: 32
T:Liverpool Hornpipe. HS.32
M:C|
L:1/8
Q:160
S:Henry Stables MS,Cumbria,late19thC
R:Hornpipe
O:Walthwaite,nr.Ambleside.
A:England
Z:vmp.Chris Partington
K:D
AG|FDFA dfaf|gefe dcBA|GBGB FAFA|EFGA GFED|!
FDFA dfaf|gefe dcBA|afdf gece|d2d2d2::!
A2|dfdf cece|Bcde dcBA|GBGB FAFA|EFGA GFED|!
FDFA dfaf|gefe dcBA|afdf gece|d2d2d2:||
